svgs/sharp-regular/bus-simple.svg

<svg xmlns="http://www.w3.org/2000/svg" viewBox="0 0 448 512"><!--! Font Awesome Pro 6.6.0 by @fontawesome - https://fontawesome.com License - https://fontawesome.com/license (Commercial License) Copyright 2024 Fonticons, Inc. --><path d="M48 272l352 0 0 128-32 0-67.8 0L80 400l-32 0 0-128zm0-48l0-80 352 0 0 80L48 224zM51.5 96c6.9-6.7 19.2-15.8 39-24.5C119.5 58.8 163 48 224 48c111.7 0 157.4 31 173.1 48L51.5 96zM24 448l8 0 0 40 0 24 48 0 0-24 0-40 220.2 0 67.8 0 0 40 0 24 48 0 0-24 0-40 8 0 24 0 0-24 0-331.9 0-6.3-3.1-5.5C426.3 47 365.6 0 224 0C157.4 0 107.2 11.9 71.3 27.5C36.2 42.9 12.9 62.7 3.1 80.4L0 85.8l0 6.3L0 424l0 24 24 0zm88-80a32 32 0 1 0 0-64 32 32 0 1 0 0 64zm224 0a32 32 0 1 0 0-64 32 32 0 1 0 0 64z"/></svg>

<svg xmlns="http://www.w3.org/2000/svg" viewBox="0 0 448 512"><!--! Font Awesome Pro 6.4.0 by @fontawesome - https://fontawesome.com License - https://fontawesome.com/license (Commercial License) Copyright 2023 Fonticons, Inc. --><path d="M48 272H400V400H368 300.2 80 48V272zm0-48V144H400v80H48zM51.5 96c6.9-6.7 19.2-15.8 39-24.5C119.5 58.8 163 48 224 48c111.7 0 157.4 31 173.1 48H51.5zM24 448h8v40 24H80V488 448H300.2 368v40 24h48V488 448h8 24V424 92.1 85.8l-3.1-5.5C426.3 47 365.6 0 224 0C157.4 0 107.2 11.9 71.3 27.5C36.2 42.9 12.9 62.7 3.1 80.4L0 85.8v6.3V424v24H24zm88-80a32 32 0 1 0 0-64 32 32 0 1 0 0 64zm224 0a32 32 0 1 0 0-64 32 32 0 1 0 0 64z"/></svg>
